;FLAVOR:RepRap
;TIME:3362
;Generated with Cura_SteamEngine 2.3.1
M190 S60
M104 S200
M109 S200
G21 ;metric values
G90 ;absolute positioning
M82 ;set extruder to absolute mode
M107 ;start with the fan off
G28 X0 Y0 ;move X/Y to min endstops
G28 Z0 ;move Z to min endstops
G1 Z15.0 F9000 ;move the platform down 15mm
G92 E0 ;zero the extruded length
G1 F200 E3 ;extrude 3mm of feed stock
G92 E0 ;zero the extruded length again
G1 F9000
;Put printing message on LCD screen
M117 Printing...
;LAYER_COUNT:105
;LAYER:0
M107
G1 F1500 E-6.5
G0 F4320 X74.878 Y83.744 Z.3
;TYPE:SKIRT
G1 F1500 E0
G1 F1800 X75.514 Y83.277 E0.03937
G1 X76.194 Y82.876 E0.07875
G1 X76.912 Y82.546 E0.11817
G1 X77.659 Y82.291 E0.15755
G1 X78.428 Y82.112 E0.19694
G1 X79.212 Y82.012 E0.23638
G1 X79.8 Y81.989 E0.26573
G1 X120.002 Y81.952 E2.27142
G1 X120.791 Y81.991 E2.31083
G1 X121.571 Y82.11 E2.3502
G1 X122.336 Y82.307 E2.38961
G1 X123.141 Y82.608 E2.43248
G1 X123.49 Y82.761 E2.4515
G1 X124.196 Y83.115 E2.4909
G1 X124.863 Y83.537 E2.53028
G1 X125.484 Y84.026 E2.56971
G1 X126.052 Y84.574 E2.60909
G1 X126.562 Y85.177 E2.64849
G1 X127.008 Y85.829 E2.6879
G1 X127.386 Y86.522 E2.72728
G1 X127.574 Y86.944 E2.75033
G1 X127.716 Y87.29 E2.76899
G1 X127.978 Y88.034 E2.80834
G1 X128.164 Y88.802 E2.84776
G1 X128.271 Y89.584 E2.88714
G1 X128.3 Y90.266 E2.9212
G1 X128.261 Y109.958 E3.90364
G1 X128.219 Y110.747 E3.94306
G1 X128.098 Y111.527 E3.98244
G1 X127.899 Y112.291 E4.02182
G1 X127.623 Y113.032 E4.06127
G1 X127.274 Y113.74 E4.10065
G1 X126.856 Y114.409 E4.14001
G1 X126.371 Y115.033 E4.17944
G1 X125.976 Y115.458 E4.20839
G1 X125.708 Y115.726 E4.2273
G1 X125.122 Y116.256 E4.26671
G1 X124.486 Y116.723 E4.30608
G1 X123.806 Y117.124 E4.34547
G1 X123.088 Y117.454 E4.38489
G1 X122.341 Y117.709 E4.42427
G1 X121.572 Y117.888 E4.46366
G1 X120.788 Y117.988 E4.50309
G1 X120.2 Y118.011 E4.53245
G1 X79.998 Y118.048 E6.53813
G1 X79.209 Y118.009 E6.57755
G1 X78.429 Y117.89 E6.61691
G1 X77.664 Y117.693 E6.65632
G1 X76.859 Y117.392 E6.6992
G1 X76.51 Y117.239 E6.71821
G1 X75.804 Y116.885 E6.75761
G1 X75.137 Y116.463 E6.79699
G1 X74.516 Y115.974 E6.83643
G1 X73.948 Y115.426 E6.8758
G1 X73.438 Y114.823 E6.9152
G1 X72.992 Y114.171 E6.95461
G1 X72.614 Y113.478 E6.994
G1 X72.426 Y113.056 E7.01704
G1 X72.284 Y112.71 E7.0357
G1 X72.022 Y111.966 E7.07506
G1 X71.836 Y111.198 E7.11448
G1 X71.729 Y110.416 E7.15386
G1 X71.7 Y109.749 E7.18717
G1 X71.7 Y103 E7.52387
G1 X71.74 Y102.211 E7.56329
G1 X71.859 Y101.431 E7.60265
G1 X72.057 Y100.666 E7.64208
G1 X72.307 Y99.992 E7.67794
G1 X72.187 Y99.714 E7.69305
G1 X71.95 Y98.961 E7.73243
G1 X71.791 Y98.187 E7.77185
G1 X71.71 Y97.402 E7.81122
G1 X71.7 Y96.956 E7.83348
G1 X71.739 Y90.013 E8.17987
G1 X71.784 Y89.225 E8.21925
G1 X71.907 Y88.445 E8.25865
G1 X72.11 Y87.681 E8.29809
G1 X72.388 Y86.942 E8.33748
G1 X72.739 Y86.235 E8.37686
G1 X73.161 Y85.567 E8.41628
G1 X73.647 Y84.945 E8.45566
G1 X74.024 Y84.542 E8.48319
G1 X74.292 Y84.274 E8.5021
G1 X74.878 Y83.744 E8.54152
G0 F4320 X75.146 Y84.042
G1 F1800 X75.768 Y83.589 E8.57991
G1 X76.433 Y83.203 E8.61827
G1 X77.135 Y82.888 E8.65666
G1 X77.866 Y82.648 E8.69504
G1 X78.617 Y82.485 E8.73338
G1 X79.382 Y82.401 E8.77178
G1 X79.8 Y82.389 E8.79264
G1 X120.002 Y82.352 E10.79833
G1 X120.77 Y82.391 E10.83669
G1 X121.53 Y82.51 E10.87507
G1 X122.274 Y82.707 E10.91347
G1 X122.98 Y82.975 E10.95114
G1 X123.329 Y83.128 E10.97015
G1 X124.017 Y83.473 E11.00855
G1 X124.664 Y83.887 E11.04687
G1 X125.266 Y84.367 E11.08528
G1 X125.814 Y84.906 E11.12363
G1 X126.304 Y85.499 E11.16201
G1 X126.729 Y86.14 E11.20038
G1 X127.204 Y87.095 E11.25359
G1 X127.346 Y87.441 E11.27225
G1 X127.601 Y88.167 E11.31064
G1 X127.778 Y88.915 E11.34899
G1 X127.878 Y89.678 E11.38738
G1 X127.9 Y90.266 E11.41674
G1 X127.861 Y109.958 E12.39918
G1 X127.819 Y110.726 E12.43755
G1 X127.698 Y111.485 E12.4759
G1 X127.499 Y112.228 E12.51427
G1 X127.224 Y112.946 E12.55263
G1 X126.876 Y113.632 E12.59101
G1 X126.458 Y114.278 E12.6294
G1 X125.976 Y114.877 E12.66775
G1 X125.694 Y115.176 E12.68826
G1 X125.426 Y115.444 E12.70717
G1 X124.854 Y115.958 E12.74553
G1 X124.232 Y116.411 E12.78392
G1 X123.567 Y116.797 E12.82228
G1 X122.865 Y117.112 E12.86067
G1 X122.134 Y117.352 E12.89906
G1 X121.383 Y117.515 E12.9374
G1 X120.618 Y117.599 E12.97579
G1 X120.2 Y117.611 E12.99665
G1 X79.998 Y117.648 E15.00234
G1 X79.23 Y117.609 E15.04071
G1 X78.47 Y117.49 E15.07908
G1 X77.726 Y117.293 E15.11748
G1 X77.02 Y117.025 E15.15516
G1 X76.671 Y116.872 E15.17417
G1 X75.983 Y116.527 E15.21257
G1 X75.336 Y116.113 E15.25089
G1 X74.734 Y115.633 E15.2893
G1 X74.186 Y115.094 E15.32765
G1 X73.696 Y114.501 E15.36603
G1 X73.271 Y113.86 E15.4044
G1 X72.796 Y112.905 E15.45761
G1 X72.654 Y112.559 E15.47627
G1 X72.399 Y111.833 E15.51466
G1 X72.222 Y111.085 E15.55301
G1 X72.122 Y110.322 E15.5914
G1 X72.1 Y109.749 E15.62001
G1 X72.1 Y103 E15.95672
G1 X72.14 Y102.232 E15.99508
G1 X72.259 Y101.472 E16.03346
G1 X72.457 Y100.729 E16.07182
G1 X72.731 Y100.01 E16.11021
G1 X72.738 Y99.997 E16.11095
G1 X72.483 Y99.349 E16.14569
G1 X72.277 Y98.607 E16.18411
G1 X72.149 Y97.849 E16.22246
G1 X72.1 Y96.958 E16.26698
G1 X72.139 Y90.015 E16.61337
G1 X72.183 Y89.248 E16.6517
G1 X72.307 Y88.488 E16.69012
G1 X72.509 Y87.746 E16.72849
G1 X72.787 Y87.029 E16.76685
G1 X73.138 Y86.344 E16.80525
G1 X73.558 Y85.7 E16.84361
G1 X74.306 Y84.824 E16.90108
G1 X74.574 Y84.556 E16.91999
G1 X75.146 Y84.042 E16.95835
G0 F4320 X75.414 Y84.339
G1 F1800 X76.02 Y83.902 E16.99563
G1 X76.67 Y83.531 E17.03297
G1 X77.356 Y83.232 E17.0703
G1 X78.07 Y83.008 E17.10764
G1 X78.803 Y82.861 E17.14493
G1 X79.801 Y82.789 E17.19485
G1 X120.003 Y82.752 E19.20054
G1 X120.75 Y82.791 E19.23786
G1 X121.488 Y82.91 E19.27515
G1 X122.21 Y83.107 E19.31249
G1 X122.82 Y83.341 E19.34509
G1 X123.169 Y83.494 E19.3641
G1 X123.837 Y83.831 E19.40142
G1 X124.465 Y84.236 E19.43871
G1 X125.046 Y84.707 E19.47602
G1 X125.574 Y85.237 E19.51334
G1 X126.043 Y85.82 E19.55067
G1 X126.446 Y86.45 E19.58799
G1 X126.834 Y87.247 E19.63221
G1 X126.976 Y87.593 E19.65087
G1 X127.222 Y88.3 E19.68821
G1 X127.392 Y89.028 E19.72551
G1 X127.483 Y89.771 E19.76286
G1 X127.5 Y90.265 E19.78752
G1 X127.461 Y109.957 E20.76996
G1 X127.42 Y110.704 E20.80728
G1 X127.299 Y111.442 E20.84459
G1 X127.1 Y112.163 E20.88191
G1 X126.825 Y112.859 E20.91924
G1 X126.477 Y113.521 E20.95656
G1 X126.061 Y114.143 E20.99389
G1 X125.411 Y114.893 E21.0434
G1 X125.143 Y115.161 E21.06231
G1 X124.586 Y115.661 E21.09966
G1 X123.98 Y116.098 E21.13693
G1 X123.33 Y116.469 E21.17427
G1 X122.644 Y116.768 E21.2116
G1 X121.93 Y116.992 E21.24894
G1 X121.197 Y117.139 E21.28623
G1 X120.199 Y117.211 E21.33615
G1 X79.997 Y117.248 E23.34184
G1 X79.25 Y117.209 E23.37916
G1 X78.512 Y117.09 E23.41645
G1 X77.79 Y116.893 E23.45379
G1 X77.18 Y116.659 E23.48639
G1 X76.831 Y116.506 E23.5054
G1 X76.163 Y116.169 E23.54273
G1 X75.535 Y115.764 E23.58001
G1 X74.954 Y115.293 E23.61732
G1 X74.426 Y114.763 E23.65465
G1 X73.957 Y114.18 E23.69197
G1 X73.554 Y113.55 E23.72929
G1 X73.166 Y112.753 E23.77351
G1 X73.024 Y112.407 E23.79217
G1 X72.778 Y111.7 E23.82952
G1 X72.608 Y110.972 E23.86681
G1 X72.517 Y110.229 E23.90416
G1 X72.5 Y109.749 E23.92812
G1 X72.5 Y103 E24.26483
G1 X72.54 Y102.253 E24.30215
G1 X72.659 Y101.515 E24.33945
G1 X72.857 Y100.793 E24.3768
G1 X73.13 Y100.097 E24.4141
G1 X73.184 Y99.995 E24.41985
G1 X73.038 Y99.692 E24.43663
G1 X72.788 Y98.987 E24.47395
G1 X72.614 Y98.259 E24.5113
G1 X72.519 Y97.517 E24.54862
G1 X72.5 Y96.961 E24.57637
G1 X72.539 Y90.018 E24.92276
G1 X72.583 Y89.271 E24.9601
G1 X72.707 Y88.533 E24.99743
G1 X72.909 Y87.813 E25.03474
G1 X73.186 Y87.118 E25.07207
G1 X73.536 Y86.457 E25.10938
G1 X73.954 Y85.837 E25.14669
G1 X74.589 Y85.107 E25.19496
G1 X74.857 Y84.839 E25.21387
G1 X75.414 Y84.339 E25.25121
G0 F4320 X75.681 Y84.638
G1 F1800 X76.272 Y84.215 E25.28747
G1 X76.906 Y83.861 E25.32369
G1 X77.575 Y83.578 E25.35993
G1 X78.271 Y83.37 E25.39618
G1 X78.986 Y83.24 E25.43243
G1 X79.801 Y83.189 E25.47317
G1 X120.003 Y83.152 E27.47886
G1 X120.728 Y83.191 E27.51508
G1 X121.445 Y83.31 E27.55134
G1 X122.144 Y83.507 E27.58757
G1 X122.659 Y83.707 E27.61514
G1 X123.008 Y83.86 E27.63415
G1 X123.656 Y84.188 E27.67038
G1 X124.264 Y84.585 E27.70661
G1 X124.825 Y85.047 E27.74287
G1 X125.332 Y85.567 E27.7791
G1 X125.779 Y86.14 E27.81536
G1 X126.16 Y86.758 E27.85158
G1 X126.464 Y87.399 E27.88697
G1 X126.606 Y87.745 E27.90563
G1 X126.844 Y88.431 E27.94186
G1 X127.006 Y89.139 E27.97809
G1 X127.088 Y89.861 E28.01434
G1 X127.1 Y90.264 E28.03446
G1 X127.061 Y109.956 E29.0169
G1 X127.02 Y110.681 E29.05313
G1 X126.899 Y111.397 E29.08935
G1 X126.7 Y112.096 E29.12561
G1 X126.426 Y112.769 E29.16187
G1 X126.079 Y113.407 E29.1981
G1 X125.664 Y114.003 E29.23433
G1 X125.128 Y114.61 E29.27473
G1 X124.86 Y114.878 E29.29364
G1 X124.319 Y115.362 E29.32986
G1 X123.728 Y115.785 E29.36612
G1 X123.094 Y116.139 E29.40234
G1 X122.425 Y116.422 E29.43858
G1 X121.729 Y116.63 E29.47482
G1 X121.014 Y116.76 E29.51108
G1 X120.199 Y116.811 E29.55182
G1 X79.997 Y116.848 E31.55751
G1 X79.272 Y116.809 E31.59373
G1 X78.555 Y116.69 E31.62999
G1 X77.856 Y116.493 E31.66622
G1 X77.341 Y116.293 E31.69378
G1 X76.992 Y116.14 E31.7128
G1 X76.344 Y115.812 E31.74903
G1 X75.736 Y115.415 E31.78526
G1 X75.175 Y114.953 E31.82152
G1 X74.668 Y114.433 E31.85775
G1 X74.221 Y113.86 E31.89401
G1 X73.84 Y113.242 E31.93023
G1 X73.536 Y112.601 E31.96562
G1 X73.394 Y112.255 E31.98428
G1 X73.156 Y111.569 E32.0205
G1 X72.994 Y110.861 E32.05674
G1 X72.912 Y110.139 E32.09299
G1 X72.9 Y109.749 E32.11246
G1 X72.9 Y103 E32.44917
G1 X72.94 Y102.275 E32.48539
G1 X73.059 Y101.558 E32.52165
G1 X73.257 Y100.859 E32.5579
G1 X73.53 Y100.186 E32.59413
G1 X73.627 Y100.007 E32.60429
G1 X73.615 Y99.987 E32.60545
G1 X73.322 Y99.322 E32.64171
G1 X73.104 Y98.629 E32.67795
G1 X72.964 Y97.917 E32.71415
G1 X72.9 Y96.963 E32.76186
G1 X72.939 Y90.02 E33.10825
G1 X72.983 Y89.295 E33.14449
G1 X73.107 Y88.579 E33.18074
G1 X73.308 Y87.881 E33.21698
G1 X73.585 Y87.21 E33.25319
G1 X73.934 Y86.573 E33.28943
G1 X74.351 Y85.978 E33.32568
G1 X74.872 Y85.39 E33.36488
G1 X75.14 Y85.122 E33.38378
G1 X75.681 Y84.638 E33.42
G0 F4320 X75.948 Y84.936
G1 F1800 X76.523 Y84.53 E33.45512
G1 X77.141 Y84.192 E33.49026
G1 X77.792 Y83.925 E33.52536
G1 X78.47 Y83.735 E33.56049
G1 X79.165 Y83.622 E33.59562
G1 X79.801 Y83.589 E33.62739
G1 X120.003 Y83.552 E35.63308
G1 X120.706 Y83.591 E35.66821
G1 X121.4 Y83.71 E35.70334
G1 X122.076 Y83.907 E35.73847
G1 X122.498 Y84.074 E35.76111
G1 X122.847 Y84.227 E35.78012
G1 X123.475 Y84.545 E35.81524
G1 X124.062 Y84.933 E35.85034
G1 X124.602 Y85.385 E35.88548
G1 X125.087 Y85.896 E35.92062
G1 X125.511 Y86.458 E35.95575
G1 X125.869 Y87.064 E35.99086
G1 X126.094 Y87.551 E36.01763
G1 X126.236 Y87.897 E36.03629
G1 X126.466 Y88.562 E36.07139
G1 X126.619 Y89.25 E36.10655
G1 X126.7 Y90.263 E36.15725
G1 X126.661 Y109.955 E37.13969
G1 X126.62 Y110.658 E37.17483
G1 X126.499 Y111.352 E37.20997
G1 X126.3 Y112.027 E37.24508
G1 X126.026 Y112.676 E37.28023
G1 X125.681 Y113.289 E37.31532
G1 X125.268 Y113.859 E37.35044
G1 X124.845 Y114.327 E37.38191
G1 X124.577 Y114.595 E37.40082
G1 X124.052 Y115.064 E37.43594
G1 X123.477 Y115.47 E37.47106
G1 X122.859 Y115.808 E37.5062
G1 X122.208 Y116.075 E37.5413
G1 X121.53 Y116.265 E37.57643
G1 X120.835 Y116.378 E37.61156
G1 X120.199 Y116.411 E37.64334
G1 X79.997 Y116.448 E39.64902
G1 X79.294 Y116.409 E39.68415
G1 X78.6 Y116.29 E39.71928
G1 X77.924 Y116.093 E39.75441
G1 X77.502 Y115.926 E39.77705
G1 X77.153 Y115.773 E39.79606
G1 X76.525 Y115.455 E39.83118
G1 X75.938 Y115.067 E39.86628
G1 X75.398 Y114.615 E39.90142
G1 X74.913 Y114.104 E39.93657
G1 X74.489 Y113.542 E39.97169
G1 X74.131 Y112.936 E40.0068
G1 X73.906 Y112.449 E40.03357
G1 X73.764 Y112.103 E40.05223
G1 X73.534 Y111.438 E40.08733
G1 X73.381 Y110.75 E40.1225
G1 X73.3 Y109.749 E40.1726
G1 X73.3 Y103 E40.50931
G1 X73.34 Y102.297 E40.54444
G1 X73.459 Y101.603 E40.57957
G1 X73.657 Y100.928 E40.61466
G1 X73.929 Y100.279 E40.64977
G1 X74.085 Y100.001 E40.66567
G1 X73.877 Y99.611 E40.68772
G1 X73.617 Y98.957 E40.72284
G1 X73.433 Y98.277 E40.75798
G1 X73.327 Y97.581 E40.79311
G1 X73.3 Y96.965 E40.82387
G1 X73.339 Y90.022 E41.17026
G1 X73.383 Y89.32 E41.20535
G1 X73.506 Y88.626 E41.24052
G1 X73.707 Y87.952 E41.2756
G1 X73.984 Y87.304 E41.31076
G1 X74.331 Y86.692 E41.34586
G1 X74.746 Y86.124 E41.38096
G1 X75.155 Y85.673 E41.41133
G1 X75.423 Y85.405 E41.43024
G1 X75.948 Y84.936 E41.46536
G0 F4320 X75.706 Y85.688
G1 F1800 X76.215 Y85.235 E41.49936
G1 X76.773 Y84.846 E41.53329
G1 X77.373 Y84.524 E41.56727
G1 X78.007 Y84.275 E41.60125
G1 X78.666 Y84.102 E41.63524
G1 X79.34 Y84.008 E41.66919
G1 X79.802 Y83.989 E41.69226
G1 X120.004 Y83.952 E43.69795
G1 X120.683 Y83.991 E43.73188
G1 X121.354 Y84.11 E43.76588
G1 X122.006 Y84.307 E43.79986
G1 X122.338 Y84.44 E43.8177
G1 X122.687 Y84.593 E43.83671
G1 X123.293 Y84.903 E43.87067
G1 X123.859 Y85.281 E43.90463
G1 X124.377 Y85.723 E43.9386
G1 X124.839 Y86.223 E43.97256
G1 X125.24 Y86.774 E44.00656
G1 X125.573 Y87.367 E44.04049
G1 X125.724 Y87.703 E44.05887
G1 X125.866 Y88.049 E44.07753
G1 X126.087 Y88.693 E44.1115
G1 X126.231 Y89.358 E44.14545
G1 X126.3 Y90.262 E44.19068
G1 X126.261 Y109.954 E45.17312
G1 X126.22 Y110.634 E45.2071
G1 X126.099 Y111.304 E45.24107
G1 X125.901 Y111.956 E45.27507
G1 X125.627 Y112.579 E45.30902
G1 X125.283 Y113.166 E45.34297
G1 X124.872 Y113.709 E45.37694
G1 X124.562 Y114.044 E45.39971
G1 X124.294 Y114.312 E45.41862
G1 X123.785 Y114.765 E45.45262
G1 X123.227 Y115.154 E45.48655
G1 X122.627 Y115.476 E45.52052
G1 X121.993 Y115.725 E45.55451
G1 X121.334 Y115.898 E45.5885
G1 X120.66 Y115.992 E45.62245
G1 X120.198 Y116.011 E45.64552
G1 X79.996 Y116.048 E47.6512
G1 X79.317 Y116.009 E47.68514
G1 X78.646 Y115.89 E47.71913
G1 X77.994 Y115.693 E47.75312
G1 X77.662 Y115.56 E47.77096
G1 X77.313 Y115.407 E47.78997
G1 X76.707 Y115.097 E47.82393
G1 X76.141 Y114.719 E47.85789
G1 X75.623 Y114.277 E47.89186
G1 X75.161 Y113.777 E47.92582
G1 X74.76 Y113.226 E47.95982
G1 X74.427 Y112.633 E47.99375
G1 X74.276 Y112.297 E48.01213
G1 X74.134 Y111.951 E48.03079
G1 X73.913 Y111.307 E48.06476
G1 X73.769 Y110.642 E48.0987
G1 X73.7 Y109.749 E48.14339
G1 X73.7 Y103 E48.4801
G1 X73.74 Y102.32 E48.51408
G1 X73.859 Y101.65 E48.54803
G1 X74.056 Y100.998 E48.58201
G1 X74.328 Y100.374 E48.61597
G1 X74.546 Y100.002 E48.63748
G1 X74.448 Y99.85 E48.64651
G1 X74.149 Y99.238 E48.68049
G1 X73.924 Y98.596 E48.71443
G1 X73.775 Y97.931 E48.74843
G1 X73.7 Y96.967 E48.79667
G1 X73.739 Y90.024 E49.14306
G1 X73.783 Y89.345 E49.17701
G1 X73.906 Y88.675 E49.21099
G1 X74.107 Y88.025 E49.24493
G1 X74.382 Y87.402 E49.27891
G1 X74.729 Y86.816 E49.31289
G1 X75.142 Y86.275 E49.34684
G1 X75.438 Y85.956 E49.36855
G1 X75.706 Y85.688 E49.38746
G0 F4320 X75.989 Y85.971
G1 F1800 X76.481 Y85.535 E49.42026
G1 X77.022 Y85.163 E49.45302
G1 X77.604 Y84.859 E49.48577
G1 X78.219 Y84.628 E49.51855
G1 X78.858 Y84.473 E49.55135
G1 X79.802 Y84.389 E49.59864
G1 X120.004 Y84.352 E51.60432
G1 X120.66 Y84.391 E51.63711
G1 X121.306 Y84.51 E51.66988
G1 X122.177 Y84.806 E51.71578
G1 X122.526 Y84.959 E51.73479
G1 X123.111 Y85.259 E51.76759
G1 X123.654 Y85.628 E51.80034
G1 X124.149 Y86.06 E51.83312
G1 X124.588 Y86.549 E51.8659
G1 X124.965 Y87.087 E51.89868
G1 X125.354 Y87.855 E51.94163
G1 X125.496 Y88.201 E51.96029
G1 X125.708 Y88.823 E51.99307
G1 X125.843 Y89.466 E52.02585
G1 X125.9 Y90.262 E52.06567
G1 X125.861 Y109.954 E53.04811
G1 X125.82 Y110.609 E53.08085
G1 X125.699 Y111.255 E53.11364
